src/svg/16/error_circle_16.svg

<svg fill="none" height="16" viewBox="0 0 16 16" width="16" xmlns="http://www.w3.org/2000/svg"><path d="m8 16c-4.416 0-8-3.584-8-8s3.584-8 8-8 8 3.584 8 8-3.584 8-8 8zm0-7.05882c.46782 0 .84706-.37924.84706-.84706v-3.48235c0-.46782-.37924-.84706-.84706-.84706-.46781 0-.84705.37924-.84705.84706v3.48235c0 .46782.37924.84706.84705.84706zm0 3.29412c.5198 0 .94118-.4214.94118-.9412s-.42138-.9412-.94118-.9412c-.51979 0-.94117.4214-.94117.9412s.42138.9412.94117.9412z" fill="currentColor"/></svg>

<svg width="16" height="16" viewBox="0 0 16 16" fill="none" xmlns="http://www.w3.org/2000/svg">
<path d="M8 16C3.584 16 0 12.416 0 8C0 3.584 3.584 0 8 0C12.416 0 16 3.584 16 8C16 12.416 12.416 16 8 16ZM8 8.94118C8.46782 8.94118 8.84706 8.56194 8.84706 8.09412V4.61177C8.84706 4.14395 8.46782 3.76471 8 3.76471C7.53219 3.76471 7.15295 4.14395 7.15295 4.61177V8.09412C7.15295 8.56194 7.53219 8.94118 8 8.94118ZM8 12.2353C8.5198 12.2353 8.94118 11.8139 8.94118 11.2941C8.94118 10.7743 8.5198 10.3529 8 10.3529C7.48021 10.3529 7.05883 10.7743 7.05883 11.2941C7.05883 11.8139 7.48021 12.2353 8 12.2353Z" fill="currentColor"/>
</svg>
